X:2236
T:Gigue du Violoneux
C:Joseph Allard
M:6/8
L:1/8
Z:abc by Peter Yarensky, adapted from
Z:abc by Bruce Osborne
Z:<http://tunes.nhcountrydance.com>.
K:D
e|\
f2 d AFA | B2 A d2 f | efg B2 c | d2 e f2 g |
aba AFA  | B2 c d2 f | efg B2 c | edd d2   :|
|:d|\ 
g3 gag   | f2 d fgf  | efe ede  | fdB B2 A  |
g3 gag   | f2 d fgf  | e2 d efg | aba a2   :|

Square Dance Tunes

